X: 6323
T: Carron Streams
R: jig
M: 6/8
K: Edorian
(3gfe f edB|dcd {a/}edc|dcA BEF|!slide!GAG FEd|
efe {a/}edB|def (3gfe f|edB AFG|EFE{A/}E2f|
(3gfe f {a/}edB|dcd {a/}edc|dcA BEF|!slide!GAG FEd|
efe {a/}edB|def gzf|{a/}edB AFG|EFE {A/}E3|
baf !slide!g2e|{a/}fBc dcd|{a/}edc dcA|BEF GEF|
GFG {A/}AGA|{c/}BAB cef|edB {A/}AFA|Be^d e3|
baf {a/}g2e|fBc dcd|{a/}edc dcA|BEF GEF|
{A/}GFG {c/}AGA|{c/}BAB cef|{a/}edB AFA|Be^d e2f|

